X:1
T:Title
%%score { 1 | 2 }
L:1/8
Q:1/4=106
M:4/4
K:Ab
V:1 treble nm="Grand Piano"
V:2 bass 
V:1
 [CE]2 [CA]2 [Ec]2 [DB]2 | [Fd]3 [Ec] [CA]4 | G2 A2 B2 d2 | c2 [EA]2 B4 | c2 d2 e2 c2 | %5
w: W.~S.~Nickle * * *|||||
 [Ff]2 [Fe]2 [Fd]4 | [Fc]2 [FB]2 A2 G2 | F2 G2 [CA]4 | [CE]2 [EA]2 A2 G2 | B3 B [CEA]4 | %10
w: |||||
 [B,EG]2 [A,EA]2 [EB]2 [Ec]2 | [Ed]3 [Ec] B4 | c2 d2 e2 c2 | [Ff]2 [Fe]2 [Fd]4 | %14
w: ||||
 [Fc]2 [FB]2 A2 G2 | F3 G [CA]4 |] %16
w: ||
V:2
 [A,,A,]2 [A,,A,]2 [A,,A,]2 [A,,A,]2 | [A,,A,]3 [A,,A,] [A,,A,]4 | %2
 [E,B,D]2 [E,A,C]2 [E,G,E]2 [G,B,E]2 | [A,E]2 [C,A,]2 [E,G,E]4 | [A,E]2 [A,B,E]2 [A,CE]2 [A,E]2 | %5
 [D,A,]2 [C,=A,]2 [B,,B,]4 | [C,=A,]2 [D,B,]2 [E,CE]2 [E,B,E]2 | [E,A,D]2 [E,B,D]2 [A,,A,]4 | %8
 [A,,A,]2 [C,A,]2 [E,CE]2 [E,B,E]2 | [E,DE]3 [E,DE] A,,4 | D,2 C,2 [B,,G,]2 [A,,A,]2 | %11
 [G,,B,]3 [A,,A,] [E,G,E]4 | [A,E]2 [A,B,E]2 [A,CE]2 [A,E]2 | [D,A,]2 [C,=A,]2 [B,,B,]4 | %14
 [C,=A,]2 [D,B,]2 [E,CE]2 [E,B,E]2 | [E,A,D]3 [E,B,D] [A,,A,]4 |] %16

